src/16/panel/gpmdp-tray-pause.svg

<svg xmlns="http://www.w3.org/2000/svg" width="16" height="16" version="1.1">
 <defs>
  <style id="current-color-scheme" type="text/css">
   .ColorScheme-Text { color:#bebebe; } .ColorScheme-Highlight { color:#5294e2; }
  </style>
 </defs>
 <path style="fill:currentColor" class="ColorScheme-Text" d="M 2.7128906 1 C 2.532375 1.0039374 2.3755848 1.0700173 2.2578125 1.1894531 C 2.090497 1.3565758 2 1.628433 2 1.9785156 L 2 14.017578 C 2 14.367573 2.098211 14.637565 2.2578125 14.804688 C 2.5009857 15.05143 2.88125 15.075907 3.3144531 14.8125 L 13.453125 8.78125 C 14.183416 8.351631 14.183416 7.6523373 13.453125 7.2148438 L 13.042969 6.96875 C 13.042152 6.9693437 12.887032 6.8763187 12.857422 6.859375 C 12.339653 4.6498869 10.367368 3 8 3 C 7.5396948 3 7.1029903 3.0827634 6.6796875 3.1992188 C 5.1333382 2.2725661 3.3144531 1.1816406 3.3144531 1.1816406 C 3.0978516 1.0543299 2.8934062 0.99597506 2.7128906 1 z M 8 4 L 8.0195312 4.0019531 C 9.6026524 4.0097231 10.956304 4.9429666 11.597656 6.2832031 C 11.633036 6.3569351 11.674346 6.4283305 11.705078 6.5039062 C 11.705845 6.5057963 11.706231 6.5078756 11.707031 6.5097656 C 11.784931 6.7032852 11.845447 6.9042012 11.892578 7.1113281 C 11.906488 7.1715451 11.916624 7.2321352 11.927734 7.2929688 C 11.968878 7.5231774 12 7.757945 12 8 C 12 8.1690928 11.973485 8.3305646 11.953125 8.4941406 L 6.546875 11.716797 C 6.528911 11.709797 6.5100235 11.704546 6.4921875 11.697266 C 6.374646 11.649356 6.2633344 11.591173 6.1523438 11.533203 C 6.0739387 11.492093 5.9951547 11.452303 5.9199219 11.40625 C 5.8277839 11.35006 5.7409391 11.287579 5.6542969 11.224609 C 5.5690199 11.162429 5.4842822 11.099821 5.4042969 11.03125 C 5.3277969 10.96578 5.2546685 10.896945 5.1835938 10.826172 C 5.1101645 10.752977 5.0382913 10.678297 4.9707031 10.599609 C 4.901985 10.519604 4.8375127 10.436633 4.7753906 10.351562 C 4.7136141 10.266977 4.6566769 10.179281 4.6015625 10.089844 C 4.5490016 10.004504 4.4972448 9.919243 4.4511719 9.8300781 C 4.4034667 9.7377285 4.3628127 9.6412901 4.3222656 9.5449219 C 4.2812301 9.4474644 4.2383822 9.3508458 4.2050781 9.25 C 4.1685704 9.1390944 4.1440186 9.0231573 4.1171875 8.9082031 C 4.096413 8.8196987 4.0694482 8.7329098 4.0546875 8.6425781 C 4.0208121 8.4330969 4 8.2190438 4 8 C 4 7.7238576 4.0287478 7.4537497 4.0820312 7.1933594 C 4.4550162 5.3706269 6.0670033 3.9999999 8 4 z M 8 6 A 2 2 0 0 0 6 8 A 2 2 0 0 0 8 10 A 2 2 0 0 0 10 8 A 2 2 0 0 0 8 6 z M 11 11 L 11 16 L 13 16 L 13 11 L 11 11 z M 14 11 L 14 16 L 16 16 L 16 11 L 14 11 z"/>
</svg>

<svg xmlns="http://www.w3.org/2000/svg" width="16" height="16"><defs><style id="current-color-scheme" type="text/css"></style></defs><path d="M2.713 1a.644.644 0 0 0-.455.19C2.09 1.356 2 1.627 2 1.978v12.039c0 .35.098.62.258.787.243.246.623.27 1.056.008l10.14-6.032c.73-.43.73-1.129 0-1.566l-.411-.246-.186-.11A4.994 4.994 0 0 0 8 3c-.46 0-.897.083-1.32.2L3.314 1.181A1.155 1.155 0 0 0 2.713 1zM8 4l.02.002a3.988 3.988 0 0 1 3.578 2.281c.035.074.076.145.107.22l.002.007c.078.193.138.394.186.601.013.06.024.121.035.182.04.23.072.465.072.707 0 .17-.027.33-.047.494l-5.406 3.223c-.018-.007-.037-.012-.055-.02-.117-.048-.229-.106-.34-.164-.078-.04-.157-.08-.232-.127a3.97 3.97 0 0 1-.266-.181 4.017 4.017 0 0 1-.25-.194 3.994 3.994 0 0 1-.22-.205 4.02 4.02 0 0 1-.213-.226 3.997 3.997 0 0 1-.37-.51 3.989 3.989 0 0 1-.15-.26 3.993 3.993 0 0 1-.129-.285c-.04-.098-.084-.194-.117-.295-.036-.11-.061-.227-.088-.342-.02-.088-.048-.175-.062-.265A4.017 4.017 0 0 1 4 8a4 4 0 0 1 4-4zm0 2a2 2 0 0 0-2 2 2 2 0 0 0 2 2 2 2 0 0 0 2-2 2 2 0 0 0-2-2zm3 5v5h2v-5h-2zm3 0v5h2v-5h-2z" fill="currentColor" color="#bebebe"/></svg>
